X:37
T:Queen of the Rushes Set
T:Queen of the Rushes
M:6/8
K:G
d/c/|B2G GdB|c2A AGA|B2G GAB|cAG FED|
B2GB2G|c2A AGA|B{^c}dB =cAd|G3{AG}G2:|:
g|fed efg|afd dcA|gfg bag|afdd2e|
=f2d e^fg|afd dcA|BdB cAd|G3{AG}G2:|:
B/c/|d3gdB|d3{^cd}gdB|cBc ABc|cBc ABc|
d3gdB|d3gdB|BdB cAd|G3{AG}G2:|
T:Paddy Fahy's Jig
M:6/8
K:G
||:DGA B2B|cBc d2g|gdc BAB|cAG F2D|DGA B2B|cBc d2g|gdc BAB|cAF G3:||:
ggg fga|gdc BAG|e2A c2A|afd def|g2a bag|fdc fdc|B3 cAF|AGF G3:||
T:Cliffs of Moher
K:Ador
eaa bag|eaf ged|c2A BAG|EFG ABd|eaa bag|eaf ged|c2A BAG|EFG A3:|:
(e=fe) dBA|(e=fe) dBA|GAB dBA|GAB dBd|
[1(e=fe) dBA|(e=fe) dBA|GAB dBG|EFG A3:|[2efe dee|cee Bee|EFG BAG|EDB, A,3|

